svgs/sharp-regular/arrows-repeat-1.svg

<svg xmlns="http://www.w3.org/2000/svg" viewBox="0 0 512 512"><!--! Font Awesome Pro 6.6.0 by @fontawesome - https://fontawesome.com License - https://fontawesome.com/license (Commercial License) Copyright 2024 Fonticons, Inc. --><path d="M0 280l0-24L0 128l0-24 24 0 346.7 0L319.9 57.8 302.1 41.6 334.4 6.1l17.8 16.1 88 80 7.9 7.1 0 10.6 0 8 0 24-24 0L48 152l0 104 0 24L0 280zm512-48l0 24 0 128 0 24-24 0-346.7 0 50.9 46.2 17.8 16.1-32.3 35.5-17.8-16.1-88-80L64 402.6 64 392l0-8 0-24 24 0 376 0 0-104 0-24 48 0zM240 192l24 0 24 0 0 24 0 80 0 24-48 0 0-24 0-56-24 0 0-48 24 0z"/></svg>

<svg xmlns="http://www.w3.org/2000/svg" viewBox="0 0 512 512"><!--! Font Awesome Pro 6.4.0 by @fontawesome - https://fontawesome.com License - https://fontawesome.com/license (Commercial License) Copyright 2023 Fonticons, Inc. --><path d="M0 280V256 128 104H24 370.7L319.9 57.8 302.1 41.6 334.4 6.1l17.8 16.1 88 80 7.9 7.1V120v8 24H424 48V256v24H0zm512-48v24V384v24H488 141.3l50.9 46.2 17.8 16.1-32.3 35.5-17.8-16.1-88-80L64 402.6V392v-8V360H88 464V256 232h48zM240 192h24 24v24 80 24H240V296 240H216V192h24z"/></svg>
